app/images/icons/icons8-airtable.svg

<svg height="50" viewBox="0 0 50 50" width="50" xmlns="http://www.w3.org/2000/svg"><path d="m24.505859 4.0078125c-.525375.00025-1.051515.1035937-1.541015.3085937l-18.7421878 7.3300778c-.743.313-1.2226562 1.036797-1.2226562 1.841797-.001.805.4771406 1.529516 1.2441406 1.853516l18.9921874 7.433594c.375.159.778734.238281 1.177734.238281.389 0 .773954-.07661 1.126954-.22461l20.230468-7.458984c.748-.312 1.228516-1.037656 1.228516-1.847656-.001-.81-.483953-1.532563-1.251953-1.851563l-19.701172-7.3164059c-.49-.204-1.015641-.3068906-1.541016-.3066406zm-22.5078121 12.9941405c-1.05600003 0-1.9980469.851953-1.9980469 2.001953v15.966797c0 1.159.95195312 2.003906 2.0019531 2.003906.296 0 .5995781-.067843.8925781-.214843l17.9843748-8.923828c1.531-.766001 1.455-2.977719-.125-3.636719l-17.9843748-7.042969c-.255-.106-.5174843-.154297-.7714843-.154297zm46.0039061 0c-.241 0-.487469.043672-.730469.138672l-19 7.365234c-.766.301-1.271484 1.038329-1.271484 1.861329v16.630859c0 1.148.940047 2.001953 1.998047 2.001953.241 0 .487469-.043672.730469-.138672l19-7.435547c.767-.3 1.271484-1.038328 1.271484-1.861328v-16.560547c0-1.148-.940047-2.001953-1.998047-2.001953z"/></svg>

<?xml version="1.0"?><svg fill="#000000" xmlns="http://www.w3.org/2000/svg" viewBox="0 0 50 50" width="50px" height="50px">    <path d="M 24.505859 4.0078125 C 23.980484 4.0080625 23.454344 4.1114062 22.964844 4.3164062 L 4.2226562 11.646484 C 3.4796562 11.959484 3 12.683281 3 13.488281 C 2.999 14.293281 3.4771406 15.017797 4.2441406 15.341797 L 23.236328 22.775391 C 23.611328 22.934391 24.015062 23.013672 24.414062 23.013672 C 24.803062 23.013672 25.188016 22.937062 25.541016 22.789062 L 45.771484 15.330078 C 46.519484 15.018078 47 14.292422 47 13.482422 C 46.999 12.672422 46.516047 11.949859 45.748047 11.630859 L 26.046875 4.3144531 C 25.556875 4.1104531 25.031234 4.0075625 24.505859 4.0078125 z M 1.9980469 17.001953 C 0.94204687 17.001953 -2.9605947e-16 17.853906 0 19.003906 L 0 34.970703 C 0 36.129703 0.95195312 36.974609 2.0019531 36.974609 C 2.2979531 36.974609 2.6015312 36.906766 2.8945312 36.759766 L 20.878906 27.835938 C 22.409906 27.069937 22.333906 24.858219 20.753906 24.199219 L 2.7695312 17.15625 C 2.5145312 17.05025 2.2520469 17.001953 1.9980469 17.001953 z M 48.001953 17.001953 C 47.760953 17.001953 47.514484 17.045625 47.271484 17.140625 L 28.271484 24.505859 C 27.505484 24.806859 27 25.544188 27 26.367188 L 27 42.998047 C 27 44.146047 27.940047 45 28.998047 45 C 29.239047 45 29.485516 44.956328 29.728516 44.861328 L 48.728516 37.425781 C 49.495516 37.125781 50 36.387453 50 35.564453 L 50 19.003906 C 50 17.855906 49.059953 17.001953 48.001953 17.001953 z"/></svg>
